xmp01.xmp
<x:xmpmeta xmlns:x="adobe:ns:meta/" x:xmptk="Adobe XMP Core 5.6-c140 79.160451, 2017/05/06-01:08:21        ">
 <rdf:RDF xmlns:rdf="http://www.w3.org/1999/02/22-rdf-syntax-ns#">
  <rdf:Description rdf:about=""
    xmlns:crs="http://ns.adobe.com/camera-raw-settings/1.0/"
   crs:PresetType="Normal"
   crs:Cluster=""
   crs:UUID="C4C2147EABBA84B02463E165B701BEE4"
   crs:SupportsAmount="False"
   crs:SupportsColor="True"
   crs:SupportsMonochrome="True"
   crs:SupportsHighDynamicRange="True"
   crs:SupportsNormalDynamicRange="True"
   crs:SupportsSceneReferred="True"
   crs:SupportsOutputReferred="True"
   crs:CameraModelRestriction=""
   crs:Copyright=""
   crs:ContactInfo=""
   crs:Version="13.2"
   crs:ProcessVersion="11.0"
   crs:WhiteBalance="Custom"
   crs:IncrementalTemperature="+4"
   crs:IncrementalTint="-1"
   crs:Exposure2012="+0.10"
   crs:Contrast2012="+1"
   crs:Highlights2012="-78"
   crs:Shadows2012="+53"
   crs:Whites2012="-73"
   crs:Blacks2012="-62"
   crs:Texture="0"
   crs:Clarity2012="0"
   crs:Dehaze="+7"
   crs:Vibrance="+32"
   crs:Saturation="-28"
   crs:ParametricShadows="-50"
   crs:ParametricDarks="+29"
   crs:ParametricLights="+2"
   crs:ParametricHighlights="-13"
   crs:ParametricShadowSplit="10"
   crs:ParametricMidtoneSplit="50"
   crs:ParametricHighlightSplit="87"
   crs:Sharpness="70"
   crs:SharpenRadius="+1.5"
   crs:SharpenDetail="25"
   crs:SharpenEdgeMasking="0"
   crs:LuminanceSmoothing="13"
   crs:LuminanceNoiseReductionDetail="50"
   crs:LuminanceNoiseReductionContrast="0"
   crs:ColorNoiseReduction="0"
   crs:HueAdjustmentRed="-10"
   crs:HueAdjustmentOrange="+8"
   crs:HueAdjustmentYellow="+90"
   crs:HueAdjustmentGreen="-58"
   crs:HueAdjustmentAqua="-37"
   crs:HueAdjustmentBlue="+40"
   crs:HueAdjustmentPurple="0"
   crs:HueAdjustmentMagenta="0"
   crs:SaturationAdjustmentRed="+10"
   crs:SaturationAdjustmentOrange="-23"
   crs:SaturationAdjustmentYellow="+7"
   crs:SaturationAdjustmentGreen="+58"
   crs:SaturationAdjustmentAqua="+10"
   crs:SaturationAdjustmentBlue="-47"
   crs:SaturationAdjustmentPurple="+26"
   crs:SaturationAdjustmentMagenta="+28"
   crs:LuminanceAdjustmentRed="-25"
   crs:LuminanceAdjustmentOrange="-20"
   crs:LuminanceAdjustmentYellow="+23"
   crs:LuminanceAdjustmentGreen="-28"
   crs:LuminanceAdjustmentAqua="0"
   crs:LuminanceAdjustmentBlue="+1"
   crs:LuminanceAdjustmentPurple="-21"
   crs:LuminanceAdjustmentMagenta="-23"
   crs:SplitToningShadowHue="51"
   crs:SplitToningShadowSaturation="6"
   crs:SplitToningHighlightHue="56"
   crs:SplitToningHighlightSaturation="0"
   crs:SplitToningBalance="-59"
   crs:ColorGradeMidtoneHue="0"
   crs:ColorGradeMidtoneSat="0"
   crs:ColorGradeShadowLum="0"
   crs:ColorGradeMidtoneLum="0"
   crs:ColorGradeHighlightLum="0"
   crs:ColorGradeBlending="100"
   crs:ColorGradeGlobalHue="0"
   crs:ColorGradeGlobalSat="0"
   crs:ColorGradeGlobalLum="0"
   crs:AutoLateralCA="0"
   crs:LensProfileEnable="0"
   crs:LensManualDistortionAmount="0"
   crs:VignetteAmount="0"
   crs:DefringePurpleAmount="0"
   crs:DefringePurpleHueLo="30"
   crs:DefringePurpleHueHi="70"
   crs:DefringeGreenAmount="0"
   crs:DefringeGreenHueLo="40"
   crs:DefringeGreenHueHi="60"
   crs:PerspectiveUpright="0"
   crs:PerspectiveVertical="0"
   crs:PerspectiveHorizontal="0"
   crs:PerspectiveRotate="0.0"
   crs:PerspectiveAspect="0"
   crs:PerspectiveScale="100"
   crs:PerspectiveX="0.00"
   crs:PerspectiveY="0.00"
   crs:GrainAmount="10"
   crs:GrainSize="25"
   crs:GrainFrequency="50"
   crs:PostCropVignetteAmount="-10"
   crs:PostCropVignetteMidpoint="26"
   crs:PostCropVignetteFeather="100"
   crs:PostCropVignetteRoundness="+95"
   crs:PostCropVignetteStyle="1"
   crs:PostCropVignetteHighlightContrast="0"
   crs:ShadowTint="0"
   crs:RedHue="+44"
   crs:RedSaturation="+14"
   crs:GreenHue="+49"
   crs:GreenSaturation="+42"
   crs:BlueHue="-57"
   crs:BlueSaturation="+85"
   crs:ConvertToGrayscale="False"
   crs:OverrideLookVignette="True"
   crs:ToneCurveName2012="Custom"
   crs:CameraProfile="Default Color"
   crs:HasSettings="True">
   <crs:Name>
    <rdf:Alt>
     <rdf:li xml:lang="x-default">xmp01</rdf:li>
    </rdf:Alt>
   </crs:Name>
   <crs:ShortName>
    <rdf:Alt>
     <rdf:li xml:lang="x-default"/>
    </rdf:Alt>
   </crs:ShortName>
   <crs:SortName>
    <rdf:Alt>
     <rdf:li xml:lang="x-default"/>
    </rdf:Alt>
   </crs:SortName>
   <crs:Group>
    <rdf:Alt>
     <rdf:li xml:lang="x-default"/>
    </rdf:Alt>
   </crs:Group>
   <crs:Description>
    <rdf:Alt>
     <rdf:li xml:lang="x-default"/>
    </rdf:Alt>
   </crs:Description>
   <crs:ToneCurvePV2012>
    <rdf:Seq>
     <rdf:li>0, 8</rdf:li>
     <rdf:li>71, 64</rdf:li>
     <rdf:li>128, 130</rdf:li>
     <rdf:li>193, 193</rdf:li>
     <rdf:li>255, 249</rdf:li>
    </rdf:Seq>
   </crs:ToneCurvePV2012>
   <crs:ToneCurvePV2012Red>
    <rdf:Seq>
     <rdf:li>0, 0</rdf:li>
     <rdf:li>62, 59</rdf:li>
     <rdf:li>131, 126</rdf:li>
     <rdf:li>195, 187</rdf:li>
     <rdf:li>255, 255</rdf:li>
    </rdf:Seq>
   </crs:ToneCurvePV2012Red>
   <crs:ToneCurvePV2012Green>
    <rdf:Seq>
     <rdf:li>0, 0</rdf:li>
     <rdf:li>255, 255</rdf:li>
    </rdf:Seq>
   </crs:ToneCurvePV2012Green>
   <crs:ToneCurvePV2012Blue>
    <rdf:Seq>
     <rdf:li>0, 35</rdf:li>
     <rdf:li>59, 69</rdf:li>
     <rdf:li>103, 108</rdf:li>
     <rdf:li>202, 203</rdf:li>
     <rdf:li>255, 255</rdf:li>
    </rdf:Seq>
   </crs:ToneCurvePV2012Blue>
  </rdf:Description>
 </rdf:RDF>
</x:xmpmeta>
